Yaru++/apps/16/gimagereader.svg

<svg height="16" width="16" xmlns="http://www.w3.org/2000/svg"><g fill="#808080" transform="translate(-632.00004 -280)"><path d="m635 290h9v1h-9z" opacity=".5"/><path d="m635 292h9v1h-9z" opacity=".5"/><path d="m4.9941406 0c-1.2582.0145-2.1788906-.03060438-2.9316406.38476562-.37637.20766-.6732306.55938688-.8378906.99804688-.16467.43867-.2246094.9595775-.2246094 1.6171875v10c0 .65761.0598994 1.178578.2246094 1.617188.16468.438609.4615306.788523.8378906.996093.75272.41513 1.6735406.371649 2.9316406.386719h.0019532 5.0058592.003906c1.25819-.0145 2.178891.030604 2.931641-.384766.37637-.20766.673221-.559386.837891-.998046.16439-.438671.224609-.959578.224609-1.617188v-10c0-.65761-.059899-1.1785775-.224609-1.6171875-.16468-.43861-.461531-.78852375-.837891-.99609375-.75272-.41513-1.673551-.37164875-2.931641-.38671875h-.001953-5.0058591zm.0058594 1h5c1.25862.0152 2.089098.0598988 2.455078.2617188.18342.1011599.287226.2128562.384766.4726562.0973.25978.160156.673235.160156 1.265625v5h-11v-5c0-.59239.0625962-1.005725.1601562-1.265625.0976001-.25991.2013557-.3714662.3847657-.4726562.36596-.20192 1.1965481-.2470188 2.4550781-.2617188zm-3 8h11v4c0 .59239-.062596 1.005725-.160156 1.265625-.0976.25991-.201356.371466-.384766.472656-.3661.20192-1.196558.247009-2.455078.261719h-4.9941406-.0058594c-1.25863-.0152-2.0890981-.059899-2.4550781-.261719-.18342-.10116-.2872257-.212856-.3847657-.472656-.0976-.25978-.1601562-.673235-.1601562-1.265625z" transform="translate(632.00004 280)"/><g stroke-width=".763623" transform="translate(.008475)"><path d="m636.36747 283.40458q-.34999 0-.54289.25852-.19289.25852-.19289.72783 0 .46732.19289.72584.1929.25852.54289.25852.35198 0 .54488-.25852.19289-.25852.19289-.72584 0-.46931-.19289-.72783-.1929-.25852-.54488-.25852zm0-.55482q.7159 0 1.12157.40966.40568.40965.40568 1.13151 0 .71987-.40568 1.12952-.40567.40966-1.12157.40966-.71391 0-1.12157-.40966-.40567-.40965-.40567-1.12952 0-.72186.40567-1.13151.40766-.40966 1.12157-.40966z"/><path d="m640.82591 285.70937q-.21079.10937-.43948.16506-.22868.0557-.47726.0557-.74175 0-1.17526-.41363-.43352-.41562-.43352-1.12555 0-.71192.43352-1.12555.43351-.41562 1.17526-.41562.24858 0 .47726.0557.22869.0557.43948.16506v.61448q-.21278-.14517-.41959-.21278-.20681-.0676-.4355-.0676-.40966 0-.64431.2625-.23465.26249-.23465.72385 0 .45937.23465.72186.23465.2625.64431.2625.22869 0 .4355-.0676.20681-.0676.41959-.21278z"/><path d="m642.55003 284.21991q.24062 0 .34403-.0895.1054-.0895.1054-.29431 0-.20284-.1054-.29034-.10341-.0875-.34403-.0875h-.32215v.76163zm-.32215.52897v1.12356h-.76561v-2.96898h1.16929q.58664 0 .85908.19687.27443.19687.27443.62243 0 .29431-.14318.48323-.14119.18892-.42755.2784.1571.0358.28039.16307.12528.12528.25255.38181l.41562.84317h-.81533l-.36192-.73777q-.10937-.22273-.22272-.30426-.11137-.0815-.29829-.0815z"/></g></g></svg>

<?xml version="1.0" encoding="UTF-8" standalone="no"?>
<svg
   xmlns:dc="http://purl.org/dc/elements/1.1/"
   xmlns:cc="http://creativecommons.org/ns#"
   xmlns:rdf="http://www.w3.org/1999/02/22-rdf-syntax-ns#"
   xmlns:svg="http://www.w3.org/2000/svg"
   xmlns="http://www.w3.org/2000/svg"
   xmlns:sodipodi="http://sodipodi.sourceforge.net/DTD/sodipodi-0.dtd"
   xmlns:inkscape="http://www.inkscape.org/namespaces/inkscape"
   width="16"
   height="16"
   version="1.1"
   id="svg20"
   sodipodi:docname="gimagereader.svg"
   inkscape:version="0.92.4 (5da689c313, 2019-01-14)">
  <metadata
     id="metadata26">
    <rdf:RDF>
      <cc:Work
         rdf:about="">
        <dc:format>image/svg+xml</dc:format>
        <dc:type
           rdf:resource="http://purl.org/dc/dcmitype/StillImage" />
        <dc:title />
      </cc:Work>
    </rdf:RDF>
  </metadata>
  <defs
     id="defs24" />
  <sodipodi:namedview
     pagecolor="#ffffff"
     bordercolor="#666666"
     borderopacity="1"
     objecttolerance="10"
     gridtolerance="10"
     guidetolerance="10"
     inkscape:pageopacity="0"
     inkscape:pageshadow="2"
     inkscape:window-width="1920"
     inkscape:window-height="1016"
     id="namedview22"
     showgrid="false"
     inkscape:zoom="52.4375"
     inkscape:cx="4.3766389"
     inkscape:cy="8"
     inkscape:window-x="0"
     inkscape:window-y="27"
     inkscape:window-maximized="1"
     inkscape:current-layer="g18" />
  <g
     style="fill:#4d4d4d"
     transform="translate(-632.00004,-280)"
     id="g18">
    <rect
       style="opacity:0.5;fill:#808080;fill-opacity:1"
       width="9"
       height="1"
       x="635"
       y="290"
       id="rect12" />
    <rect
       style="opacity:0.5;fill:#808080;fill-opacity:1"
       width="9"
       height="1"
       x="635"
       y="292"
       id="rect14" />
    <path
       style="fill:#808080;fill-opacity:1"
       d="M 4.9941406 0 C 3.7359406 0.0145 2.81525 -0.030604375 2.0625 0.38476562 C 1.68613 0.59242562 1.3892694 0.9441525 1.2246094 1.3828125 C 1.0599394 1.8214825 1 2.34239 1 3 L 1 13 C 1 13.65761 1.0598994 14.178578 1.2246094 14.617188 C 1.3892894 15.055797 1.68614 15.405711 2.0625 15.613281 C 2.81522 16.028411 3.7360406 15.98493 4.9941406 16 L 4.9960938 16 L 10.001953 16 L 10.005859 16 C 11.264049 15.9855 12.18475 16.030604 12.9375 15.615234 C 13.31387 15.407574 13.610721 15.055848 13.775391 14.617188 C 13.939781 14.178517 14 13.65761 14 13 L 14 3 C 14 2.34239 13.940101 1.8214225 13.775391 1.3828125 C 13.610711 0.9442025 13.31386 0.59428875 12.9375 0.38671875 C 12.18478 -0.02841125 11.263949 0.01507 10.005859 0 L 10.003906 0 L 4.9980469 0 L 4.9941406 0 z M 5 1 L 10 1 C 11.25862 1.0152 12.089098 1.0598988 12.455078 1.2617188 C 12.638498 1.3628787 12.742304 1.474575 12.839844 1.734375 C 12.937144 1.994155 13 2.40761 13 3 L 13 8 L 2 8 L 2 3 C 2 2.40761 2.0625962 1.994275 2.1601562 1.734375 C 2.2577563 1.474465 2.3615119 1.3629088 2.5449219 1.2617188 C 2.9108819 1.0597988 3.74147 1.0147 5 1 z M 2 9 L 13 9 L 13 13 C 13 13.59239 12.937404 14.005725 12.839844 14.265625 C 12.742244 14.525535 12.638488 14.637091 12.455078 14.738281 C 12.088978 14.940201 11.25852 14.98529 10 15 L 5.0058594 15 L 5 15 C 3.74137 14.9848 2.9109019 14.940101 2.5449219 14.738281 C 2.3615019 14.637121 2.2576962 14.525425 2.1601562 14.265625 C 2.0625562 14.005845 2 13.59239 2 13 L 2 9 z "
       transform="translate(632.00004,280)"
       id="path16" />
    <g
       aria-label="OCR"
       style="font-style:normal;font-weight:normal;font-size:30.54490471px;line-height:1.25;font-family:sans-serif;letter-spacing:0px;word-spacing:0px;fill:#808080;fill-opacity:1;stroke:none;stroke-width:0.76362258"
       id="text822"
       transform="translate(0.008475)">
      <path
         d="m 636.36747,283.40458 q -0.34999,0 -0.54289,0.25852 -0.19289,0.25852 -0.19289,0.72783 0,0.46732 0.19289,0.72584 0.1929,0.25852 0.54289,0.25852 0.35198,0 0.54488,-0.25852 0.19289,-0.25852 0.19289,-0.72584 0,-0.46931 -0.19289,-0.72783 -0.1929,-0.25852 -0.54488,-0.25852 z m 0,-0.55482 q 0.7159,0 1.12157,0.40966 0.40568,0.40965 0.40568,1.13151 0,0.71987 -0.40568,1.12952 -0.40567,0.40966 -1.12157,0.40966 -0.71391,0 -1.12157,-0.40966 -0.40567,-0.40965 -0.40567,-1.12952 0,-0.72186 0.40567,-1.13151 0.40766,-0.40966 1.12157,-0.40966 z"
         style="font-style:normal;font-variant:normal;font-weight:bold;font-stretch:normal;font-size:4.07265377px;font-family:sans-serif;-inkscape-font-specification:'sans-serif Bold';fill:#808080;fill-opacity:1;stroke-width:0.76362258"
         id="path824"
         inkscape:connector-curvature="0" />
      <path
         d="m 640.82591,285.70937 q -0.21079,0.10937 -0.43948,0.16506 -0.22868,0.0557 -0.47726,0.0557 -0.74175,0 -1.17526,-0.41363 -0.43352,-0.41562 -0.43352,-1.12555 0,-0.71192 0.43352,-1.12555 0.43351,-0.41562 1.17526,-0.41562 0.24858,0 0.47726,0.0557 0.22869,0.0557 0.43948,0.16506 v 0.61448 q -0.21278,-0.14517 -0.41959,-0.21278 -0.20681,-0.0676 -0.4355,-0.0676 -0.40966,0 -0.64431,0.2625 -0.23465,0.26249 -0.23465,0.72385 0,0.45937 0.23465,0.72186 0.23465,0.2625 0.64431,0.2625 0.22869,0 0.4355,-0.0676 0.20681,-0.0676 0.41959,-0.21278 z"
         style="font-style:normal;font-variant:normal;font-weight:bold;font-stretch:normal;font-size:4.07265377px;font-family:sans-serif;-inkscape-font-specification:'sans-serif Bold';fill:#808080;fill-opacity:1;stroke-width:0.76362258"
         id="path826"
         inkscape:connector-curvature="0" />
      <path
         d="m 642.55003,284.21991 q 0.24062,0 0.34403,-0.0895 0.1054,-0.0895 0.1054,-0.29431 0,-0.20284 -0.1054,-0.29034 -0.10341,-0.0875 -0.34403,-0.0875 h -0.32215 v 0.76163 z m -0.32215,0.52897 v 1.12356 h -0.76561 v -2.96898 h 1.16929 q 0.58664,0 0.85908,0.19687 0.27443,0.19687 0.27443,0.62243 0,0.29431 -0.14318,0.48323 -0.14119,0.18892 -0.42755,0.2784 0.1571,0.0358 0.28039,0.16307 0.12528,0.12528 0.25255,0.38181 l 0.41562,0.84317 h -0.81533 l -0.36192,-0.73777 q -0.10937,-0.22273 -0.22272,-0.30426 -0.11137,-0.0815 -0.29829,-0.0815 z"
         style="font-style:normal;font-variant:normal;font-weight:bold;font-stretch:normal;font-size:4.07265377px;font-family:sans-serif;-inkscape-font-specification:'sans-serif Bold';fill:#808080;fill-opacity:1;stroke-width:0.76362258"
         id="path828"
         inkscape:connector-curvature="0" />
    </g>
  </g>
</svg>
